X:390
T: Geschwind zum Doktor (115), S. 272
N: T0279
O: Luxemburg
S: Singendes Volk, Esch-Alzette 1937 posth.]
N: Heffingen, fff Maria Berchem, um 1904
R: Liebeslieder]
M: 2/4
L: 1/8
K: G
 | G3A | B2d2 | A2BA | G2z2 |
B3c | d2d2 | edcB | c2
AB | c2cc | dcBA | B2
GA | B2dd | A2BA | G2z2

@@@ Tune index: 8444
